X: 1106
T: Hüseynî Sazsemâîsi
C: Tatyos Efendi
O: Turkey
F: http://compmusic.upf.edu/node/140
N: huseyni--sazsemaisi--aksaksemai----tatyos_efendi
N: makam= huseyni
N: form= sazsemaisi
N: usul= aksaksemai = 10/8
M: 10/8
L: 1/16
K: C _2/4B ^3/4f  
Q: 1/4=132
%%MIDI tuningsystem comma53
A4 d2e4eg fge4c2  | d4 e2c2 dedc B2cB cdBc  | 
w:  1. HANE  |   | 
A4 G2AG ABc2 d2e2 f2d2  | e2f2 agg3ffg fee4z2  | 
w:   |   | 
e4 a2g2 fge=f dec3ede  | c3e dec2 dedc B2cB cdBc  | 
w:  TESLİM  |   | 
A4 G2AG ABcd e^2/4fag =fed2  | c4 BAed dccB BAAB cde2  | 
w:   |   | 
e4 a2g2 fge=f dec3ede  | c3e dec2 dedc B2cB cdBc  | 
w:  TESLİM  |   | 
A4 G2AG ABcd e^2/4fag =fed2  | c4 BAed dccB BAA4z2  | 
w:   |   | 
A4 g2^fg efde ^cd=Bc A4  | A3=B ^c2d2 e2^f2 g2a3_1/4bgb  | 
w:  2. HANE  |   | 
a4 (3_1/4bag^f3eef eddg feed  | ^c=BA2 (3_1/4bag^f3ee^3/4f edd4z2  | 
w:   |   | 
A4 g2^fg efde ^cd=Bc A4  | A3=B ^c2d2 e2^f2 g2a3_1/4bgb  | 
w:  2. HANE  |   | 
a4 (3_1/4bag^f3eef eddg feed  | ^c=BA2 (3_1/4bag^f3ee^3/4f edd4z2  | 
w:   |   | 
e4 a2g2 fge=f dec3ede  | c3e dec2 dedc B2cB cdBc  | 
w:  TESLİM  |   | 
A4 G2AG ABcd e^2/4fag =fed2  | c4 BAed dccB BAAB cde2  | 
w:   |   | 
e4 a2g2 fge=f dec3ede  | c3e dec2 dedc B2cB cdBc  | 
w:  TESLİM  |   | 
A4 G2AG ABcd e^2/4fag =fed2  | c4 BAed dccB BAA4z2  | 
w:   |   | 
g4 ^f2g3de2 f2g4f2  | g4 ^f2g2 a_1/4ba2 g2f4e2  | \
w:  3. HANE  |   | 
^f4 e2fg fe^3/4fg a_1/4bag ^2/4fed2  | 
w:   | 
d2c2 B2g2 =feed d^cd4z2  | g4 ^f2g3de2 f2g4f2  | \
w:   |  3. HANE  | 
g4 ^f2g2 a_1/4ba2 g2f4e2  | 
w:   | 
^f4 e2fg fe^3/4fg a_1/4bag ^2/4fed2  | \
w:   | 
d2c2 B2g2 =feed d^cd4z2  | 
w:   | 
e4 a2g2 fge=f dec3ede  | c3e dec2 dedc B2cB cdBc  | 
w:  TESLİM  |   | 
A4 G2AG ABcd e^2/4fag =fed2  | c4 BAed dccB BAAB cde2  | 
w:   |   | 
e4 a2g2 fge=f dec3ede  | c3e dec2 dedc B2cB cdBc  | 
w:  TESLİM  |   | 
A4 G2AG ABcd e^2/4fag =fed2  | c4 BAed dccB BAA4z2  | 
w:   |   | 
z12  | A4e4e3d  | (3d2c2d2e4(3d2e2f2  | \
w:  |  4. HANE  |   | 
g3^1/4fe3dc3d  | e3d(3d2c2B2c3B  | 
w:   |   | 
(3A2G2A2(3B2A2B2(3c2B2c2  | (3d2c2d2(3e2f2g2(3^1/4f2e2d2  | \
w:   |   | 
c3B(3=f2e2d2c3B  | 
w:   | 
(3c2B2A2A4e4  | A4e4e3d  | (3d2c2d2e4(3d2e2f2  | \
w:   |   |   | 
g3^1/4fe3dc3d  | 
w:   | 
e3d(3d2c2B2c3B  | (3A2G2A2(3B2A2B2(3c2B2c2  | \
w:   |   | 
(3d2c2d2(3e2f2g2(3^1/4f2e2d2  | 
w:   | 
c3B(3=f2e2d2c3B  | (3c2B2A2A4(3G2A2B2  | \
w:   |   | 
c4c3de3c  | d3B(3c2B2A2(3G2A2B2  | 
w:   |   | 
c4c3de3c  | d3Bc4z4  | (3g2^f2_3/4e2(3f2g2a2(3g2f2e2  | \
w:   |   |   | 
(3d2_3/4e2^f2(3g2f2e2(3e2d2c2  | 
w:   | 
(3g2^f2_3/4e2(3f2g2a2(3g2f2e2  | (3_3/4e2d2c2c4(3G2A2B2  | \
w:   |   | 
c4c3de3c  | 
w:   | 
d3B(3c2B2A2(3G2A2B2  | c4c3de3c  | d3Bc4(3c2d2e2  | \
w:   |   |   | 
=f4f3ee3d  | 
w:   | 
d3cB3AG4  | A4(3=f2e2d2c3B  | (3c2B2A2A4z4  | z20  | \
w:   |   |   |  | 
e4 a2g2 fge=f dec3ede  | 
w:  TESLİM  | 
c3e dec2 dedc B2cB cdBc  | A4 G2AG ABcd e^2/4fag =fed2  | 
w:   |   | 
c4 BAed dccB BAAB cde2  | e4 a2g2 fge=f dec3ede  | 
w:   |  TESLİM  | 
c3e dec2 dedc B2cB cdBc  | A4 G2AG ABcd e^2/4fag =fed2  | 
w:   |   | 
c4 BAed dccB BAA4z2  | |


